!!!!SEGMENT: pl-wumfc--r282--002-020_paderewski-ignacy-jan---exercises-2--exercise-20.krn
!!!cenid: 18xx:3195
!!!COM: Paderewski, Ignacy Jan
!!!COM-rismid: pe30029943
!!!CDT: 1860/11/18-1941/06/29
!!!CNT: Polish
!!!GTL: [Exercises 2]
!!!OTL: [Exercise] 20
!!!OMV: 020
!!!PDT:
!!!AGN:
!!!SMS-siglum: PL-Wumfc
!!!SMS-shelfmark: R282
!!!SMS-shelfwork: 002-020 G
!!!SMS-variant:
!!!SMS-altvar:
!!!NIFC-rismid: 1001158933
!!!URL-scan: http://repozytorium.nifc.pl/skany/pl-wumfc--r282
!!!ONB-nifc: UWAGA: druga grupa ćwiczeń od skanu 0008
!!!OMD:
!!!key: B
**kern	**kern
*part1	*part1
*staff2	*staff1
*I"Fortepian	*I"Fortepian
*Ipiano	*Ipiano
*ICklav	*ICklav
*clefF4	*clefG2
*k[f#c#g#d#a#]	*k[f#c#g#d#a#]
*B:	*B:
*M4/4	*M4/4
*^	*^
!	!	!LO:TX:t=P:problem:brak metrum	!
(2>F#/	2BB\	2b/	4d#\
.	.	.	4c#\
=1	=1	=1	=1
2G#/)	2GG#\	2b/	4B\
.	.	.	4c#\
2D#/	2FF#\	2a#/	4d#\
.	.	.	4A#\
=2	=2	=2	=2
2G#/	2EE\	2g#/	4B\
.	.	.	4c#\
2B/	2DD#\	2f#/	4d#\
.	.	.	4B\
=3	=3	=3	=3
2G#/	2GG#\	2b/	4d#\
.	.	.	4b\
2A#/	2FF#\	2cc#/	4a#\
.	.	.	4g#\
=4	=4	=4	=4
2B;>/	2BB;>\	2dd#;>/	2f#\
2B/	2BB\	2dd#/	4d#\
.	.	.	4e\
=5	=5	=5	=5
2A#/	2D#\	2dd#/	4f#\
.	.	.	4g#\
2B/	2BB\	2dd#/	4f#\
.	.	.	4d#\
=6	=6	=6	=6
[>2G#/	2C#\	2cc#/	4e\
.	.	.	4f#\
2G#/]	2E\	2b/	4g#\
.	.	.	4d#\
=7	=7	=7	=7
2c#/	2C#\	2ee/	4g#\
.	.	.	4a#\
2d#/	2BB\	2dd#/	4b\
.	.	.	4d#\
!!LO:LB:g=original
=8	=8	=8	=8
2A#;>/	2FF#;>\	2cc#;>/	2f#\
[>2G#/	2GG#\	2b/	4g#\
.	.	.	4f#\
=9	=9	=9	=9
2G#/]	2E\	2cc#/	4e\
.	.	.	4cc#\
2B/	2D#\	2dd#/	4b\
.	.	.	4f#\
=10	=10	=10	=10
2G#/	2E\	2cc#/	4e\
.	.	.	4f#\
2G#/	2GG#\	2b/	4g#\
.	.	.	4d#\
=11	=11	=11	=11
2E/	2C#\	2g#/	4e\
.	.	.	4d#\
[>2F#/	2FF#\	2a#/	4c#\
.	.	.	4f#\
=12	=12	=12	=12
2F#/]	2BB\	2b;>/	2d#\
2d#/	2BB\	2ff#/	4b\
.	.	.	4a#\
=13	=13	=13	=13
[>2B/	2D#\	2dd#/	4b\
.	.	.	4f#\
2B/]	2E\	2b/	4g#\
.	.	.	4f#\
=14	=14	=14	=14
2G#/	2E\	2cc#/	4e\
.	.	.	4f#\
2c#/	2C#\	2ee/	4g#\
.	.	.	4a#\
=15	=15	=15	=15
2d#/	2BB\	2dd#/	4b\
.	.	.	4g#\
2c#/	2F#\	2cc#/	4a#\
.	.	.	4f#\
=16	=16	=16	=16
2d#/	2BB\	2b;>/	2d#\ 2b
*v	*v	*	*
*	*v	*v
!!LO:LB:g=original
==	==
*-	*-
!!!system-decoration: [(s1,s2)]
!!!RDF**kern: < = below
!!!RDF**kern: > = above
!!!ENC: Filip Voros
!!!END: 2021-11-13
!!!ENC: Marta Chmielewska
!!!END: 2021-11-17
